assets/img/safety5.svg

<svg width="100" height="101" viewBox="0 0 100 101" fill="none" xmlns="http://www.w3.org/2000/svg">
<circle cx="50" cy="50.4863" r="50" fill="#00AEEF"/>
<path d="M63.2656 34.2243H50.6134V40.5504H63.2656V34.2243Z" fill="white"/>
<path d="M43.986 34.2243H37.6599V40.5504H43.986V34.2243Z" fill="white"/>
<path d="M63.2656 46.8763H50.6134V53.2024H63.2656V46.8763Z" fill="white"/>
<path d="M43.986 47.1778H37.6599V53.5039H43.986V47.1778Z" fill="white"/>
<path d="M49.7096 77.0006L63.2655 63.4447L58.7469 58.926L49.7096 67.9633L45.191 63.4447L40.6723 67.6621L49.7096 77.0006Z" fill="white"/>
<path d="M69.5917 79.1097H31.3339V27.8985H69.5917V79.1097ZM63.2656 21.5724V14.9451H37.66V21.5724H25.0078V72.7836L37.66 85.4358H75.9178V21.5724H63.2656Z" fill="white"/>
</svg>

<svg width="100" height="101" fill="none" xmlns="http://www.w3.org/2000/svg"><circle cx="50" cy="50.486" r="50" fill="#00AEEF"/><path d="M63.266 34.224H50.613v6.326h12.653v-6.326Zm-19.28 0H37.66v6.326h6.326v-6.326Zm19.28 12.652H50.613v6.326h12.653v-6.326Zm-19.28.302H37.66v6.326h6.326v-6.326ZM49.71 77l13.556-13.555-4.52-4.519-9.036 9.037-4.519-4.518-4.519 4.217 9.038 9.339Z" fill="#fff"/><path d="M69.592 79.11H31.334V27.898h38.258V79.11Zm-6.326-57.538v-6.627H37.66v6.627H25.008v51.212L37.66 85.436h38.258V21.572H63.266Z" fill="#fff"/></svg>
